X:83
T:Duncan Swan
Z:Jack Campin - http://www.campin.me.uk
S:Blaikie MS (NLS MS.1578) p25, Blaikie #77
M:3/4
L:1/8
V:1 midi program 1 74
V:2 midi program 1 46 bass middle = d transpose -24
Q:1/4=90
N:last note in part 1 is dotted in the MS
K:G Minor
[V:1]   FF D2 C2|DF G3  A|FF  G3  A|cc A G2A|
[V:2]   B2 f2 a2|b2 e2 f2|B2  e2 f2|f2 e2 f2|
%
[V:1]   FF D2 C2|DF G3  A|FF  G2 A2|cc A G2||
[V:2]   B2 f2 a2|b2 e2 f2|B2  e2 f2|f3   e2||
%
[V:1] F|Bc d3  c|B2 A2 zD|B>c d3  d|cB AG zD|
[V:2] z|B2 b2 f2|de f2 z2|B2  b2 b2|b2 e3  z|
%
[V:1]   Bc d3  z|cB A2 c2|df  d2 d2|cB A G2|]
[V:2]   B2 b2 z2|f2 f2 f2|B2  b2 b2|f3   e2|]
W:Transcription (c) Jack Campin 2009, no mirroring or republication without permission

